X:138
T:Round with a health to Glorious Wellington &c.
T:Deoch Sl\`ainte do'n \`armailt
R:Air
S:Simon Fraser Collection
N:No.130
O:Scottish
M:6/8
L:1/8
Q:3/8=70
K:F
C|F2 f/>d/ cAG/F/|F>GA/G/ FDC|F2 f/d/ cAG/F/|Acc c2 f/g/|afd cAF|
F>GA/G/ FDC|f/a/g/f/e/d/ c/d/c/B/A/G/|FFA F2:|
c|f2 c' afc|dgf edc|f2 c' a/b/c'f|ac'c'/b/ c'2a|b>c'd' def|gaf edc|
df/d/f/d/ eg/e/g/e/|cfe f2 z/c/|f2 c' afc|dgf e>dc/B/|Acf d/c/B/A/G/F/|
Acc c2f|ega/b/ afc|d>Bf/d/ cAF|CBB CAA|G>FG/A/ F3||
|:A2c BGE|F2A GEC|FFF GGG|AcA G3|A2c BGE|F2A GEC|
DDD EEE|FFA F2:|
|:(3c/d/e/|fc/f/a/f/ g/f/e/d/c/B/|A/c/f/c/a/f/ g/f/e/d/c/B/|A/F/c/A/g/e/
d/c/B/A/G/F/|
Acc c2 B/A/|Bd/B/d/B/ Ac/A/c/A/|d/c/B/A/G/F/ G/F/E/D/C/B,/|
A,/B,/C/F/A/B/ c/B/A/f/d/B/|ABG F2:|

